X:30
T:Miss Stewart Derculloch's Reel
C:Robert Petrie
S:Petrie's Collection of Strathspey Reels and Country Dances &c., 1790
Z:Steve Wyrick , 3/19/04
N:Petrie's First Collection, page 14
L:1/8
M:C|
R:Reel
K:D
A|d2 (df) e2 (eg)|fdgf e(EE)e|d2 (df) e2 (eg)|fdec        dDDA |
  d2 (df) e2 (eg)|fdgf e(EE)e|defd    efga   |fdec        dDD ||
f|abaf    dfaf   |gbaf g(ee)f|abaf    dfaf   |ge a/g/f/e/ fddf |
  abaf    dfaf   |gbaf g(ee)f|dfeg    fagb   |afge        fdd |]
